!!!!SEGMENT: pl-kk--kk-i-346--004_gorczycki-grzegorz-gerwazy--ave-maria.krn
!!!id: 17xx:2162
!!!COM: Gorczycki, Grzegorz Gerwazy
!!!COM-rism: pe30009207
!!!CDT: ~1666-1734/04/30
!!!CNT: Polish
!!!OTL: Ave Maria
!!!PDT:
!!!SMS-siglum: PL-Kk
!!!SMS-shelfmark: Kk.I.346
!!!NIFC-rismID: 1001145580
!!!URL-scan: http://repozytorium.nifc.pl/skany/pl-kk-nut--i-346
!!!ONB-nifc: UWAGA: utwory w zbiorze: 1. Rorate caeli, 2. Tollite portas, 3. Alleluja, 4. Ave Maria
!!!SMS-variant:
!!!SMS-altvar:
**kern	**text	**text	**kern	**text	**text	**kern	**text	**text	**kern	**text	**text
*part4	*part4	*part4	*part3	*part3	*part3	*part2	*part2	*part2	*part1	*part1	*part1
*staff4	*staff4	*staff4	*staff3	*staff3	*staff3	*staff2	*staff2	*staff2	*staff1	*staff1	*staff1
*I"Baſsus.	*	*	*I"Tenor 2 d(us)	*	*	*I"Tenor Primus	*	*	*I"Altus	*	*
*I'B	*	*	*I'T 2	*	*	*I'T 1	*	*	*I'A	*	*
*clefF4	*	*	*clefC4	*	*	*clefC4	*	*	*clefC3	*	*
*k[b-]	*	*	*k[b-]	*	*	*k[b-]	*	*	*k[b-]	*	*
*M2/1	*	*	*M2/1	*	*	*M2/1	*	*	*M2/1	*	*
*met(C|)	*	*	*met(C|)	*	*	*met(C|)	*	*	*met(C|)	*	*
=1-	=1-	=1-	=1-	=1-	=1-	=1-	=1-	=1-	=1-	=1-	=1-
!LO:TX:t=P:problem:"intonatio" D-F-A	!	!	!LO:TX:t=P:problem:"intonatio" D-F-A (patrz odpowiedzi na pytanie http://git.nifc.pl/transkrypcje/popc2-transkrypcje/issues/308#issuecomment-3659)	!	!	!	!	!	!	!	!
!LO:TX:t=P:problem:kreska pseudotaktowa	!	!	!LO:TX:t:b=Offertorium toni peregrini.	!	!	!	!	!	!	!	!
*	*	*	*	*	*	*	*	*	*lig	*	*
!	!	!	!	!	!	!	!	!	!LO:TX:b:t=P:problem:"Solo" zapisane ołówkiem	!	!
!	!	!	!	!	!	!	!	!	!LO:TX:a:i:t=Solo	!	!
!	!	!	!	!	!	!	!	!	!LO:TX:a:t=P:problem:"offert." zapisane ołówkiem	!	!
!	!	!	!	!	!	!	!	!	!LO:TX:b:i:t=offert.	!	!
!	!	!	!	!	!	!LO:TX:t=P:problem:kreska pseudotaktowa	!	!	!LO:TX:a:i:t=Offertori\num.	!	!
!	!	!	!	!	!	!LO:TX:a:i:t=Offertorium.	!	!	!	!	!
1r	.	.	0r	.	.	00r	.	.	1d	A-	.
*lig	*	*	*	*	*	*	*	*	*	*	*
!	!	!	!	!	!	!	!	!	!LO:TX:t=P:problem:kreska pseudotaktowa	!	!
1D	A-	.	.	.	.	.	.	.	1f	.	.
*	*	*	*	*	*	*	*	*	*Xlig	*	*
=2-	=2-	=2-	=2-	=2-	=2-	=2-	=2-	=2-	=2-	=2-	=2-
*	*	*	*lig	*	*	*	*	*	*	*	*
1F	.	.	1A	A-	.	.	.	.	2c,</	-ve	.
.	.	.	.	.	.	.	.	.	1f	Ma-	.
*Xlig	*	*	*	*	*	*	*	*	*	*	*
2C/	ve	.	1c	.	.	.	.	.	.	.	.
*	*	*	*	*	*	*	*	*	*2\right	*	*
!LO:TX:t=P:problem:kreska pseudotaktowa	!	!	!	!	!	!	!	!	!LO:TX:t=P:problem:kreska pseudotaktowa	!	!
2C/	Ma-	.	.	.	.	.	.	.	2e\	-ri-	.
*	*	*	*Xlig	*	*	*	*	*	*	*	*
=3-	=3-	=3-	=3-	=3-	=3-	=3-	=3-	=3-	=3-	=3-	=3-
!	!	!	!LO:TX:t=P:problem:kreska pseudotaktowa	!	!	!	!	!	!	!	!
*	*	*	*	*	*	*lig	*	*	*	*	*
1F	-ri-	.	1A,<	-ve	.	1A	A-	.	2f\	-a	.
.	.	.	.	.	.	.	.	.	2.f\	gra-	.
*2\right	*	*	*	*	*	*	*	*	*	*	*
2F\	-a	.	1A	Ma-	.	1c	-ve	.	.	.	.
!	!	!	!	!	!	!	!	!	!LO:TX:a:t=P:problem:4,8,16\middle:global	!	!
.	.	.	.	.	.	.	.	.	4f\	-ti-	.
!	!	!	!	!	!	!	!	!	!LO:TX:t=P:problem:kreska pseudotaktowa	!	!
2.F\	gra-	.	.	.	.	.	.	.	2c/	-a	.
*	*	*	*	*	*	*Xlig	*	*	*	*	*
=4-	=4-	=4-	=4-	=4-	=4-	=4-	=4-	=4-	=4-	=4-	=4-
.	.	.	1A	-ri-	.	2A/	Ma-	.	1d	ple-	.
!LO:TX:t=P:problem:4,8\middle or left:global	!	!	!	!	!	!	!	!	!	!	!
4E\	-ti-	.	.	.	.	.	.	.	.	.	.
!LO:TX:t=P:problem:kreska pseudotaktowa	!	!	!	!	!	!LO:TX:t=P:problem:kreska pseudotaktowa	!	!	!	!	!
2D/	-a	.	.	.	.	2F/	-ri-	.	.	.	.
!	!	!	!LO:TX:t=P:problem:kreska pseudotaktowa	!	!	!	!	!	!	!	!
2C/	ple-	.	1A,<	-a	.	1c	-a	.	2e\	.	.
!LO:TX:t=P:problem:kreska pseudotaktowa	!	!	!	!	!	!	!	!	!LO:TX:t=P:problem:kreska pseudotaktowa	!	!
2AA/	.	.	.	.	.	.	.	.	2f\	.	.
=5-	=5-	=5-	=5-	=5-	=5-	=5-	=5-	=5-	=5-	=5-	=5-
*	*	*	*	*	*	*2\right	*	*	*	*	*
!LO:TX:t=P:problem:4,8/middle or right:global	!	!	!	!	!	!	!	!	!	!	!
4GG/	.	.	1.B-X	gra-	.	2B-X\	gra-	.	2g\	.	.
4AA/	.	.	.	.	.	.	.	.	.	.	.
4BB-/	.	.	.	.	.	2.B-\	-ti-	.	4d\	.	.
!LO:TX:t=P:problem:kreska pseudotaktowa	!	!	!	!	!	!	!	!	!LO:TX:t=P:problem:kreska pseudotaktowa	!	!
4C/	.	.	.	.	.	.	.	.	4e\	.	.
2D\	.	.	.	.	.	.	.	.	2f\	.	.
!	!	!	!	!	!	!LO:TX:t=P:problem:4,8/middle or right:global	!	!	!	!	!
.	.	.	.	.	.	4A/	.	.	.	.	.
*	*	*	*2\right	*	*	*	*	*	*	*	*
!LO:TX:t=P:problem:kreska pseudotaktowa	!	!	!	!	!	!LO:TX:t=P:problem:kreska pseudotaktowa	!	!	!	!	!
2E\	.	.	2B-\	-ti-	.	2G/	-a	.	2g\	.	.
=6-	=6-	=6-	=6-	=6-	=6-	=6-	=6-	=6-	=6-	=6-	=6-
!	!	!	!LO:TX:t=P:problem:kreska pseudotaktowa	!	!	!	!	!	!	!	!
!	!	!	!	!	!	!LO:TX:a:t=P:problem:4,8,16\middle:global	!	!	!	!	!
4F\	.	.	1A	-a	.	4A\	ple-	.	2c/	.	.
4FF/	.	.	.	.	.	4B-\	.	.	.	.	.
4AA/	.	.	.	.	.	2.c\	.	.	1f	.	.
4BB-/	.	.	.	.	.	.	.	.	.	.	.
!LO:LB:g=original	!	!	!	!	!	!	!	!	!	!	!
1C	.	.	1G	ple-	.	.	.	.	.	.	.
.	.	.	.	.	.	4G/	.	.	.	.	.
!	!	!	!	!	!	!	!	!	!LO:LB:g=original	!	!
!	!	!	!	!	!	!	!	!	!LO:TX:t=P:problem:kreska pseudotaktowa	!	!
.	.	.	.	.	.	4c\	.	.	2e\	.	.
!	!	!	!	!	!	!LO:TX:t=P:problem:kreska pseudotaktowa	!	!	!	!	!
.	.	.	.	.	.	4B-\	.	.	.	.	.
=7-	=7-	=7-	=7-	=7-	=7-	=7-	=7-	=7-	=7-	=7-	=7-
!LO:TX:t=P:problem:kreska pseudotaktowa	!	!	!LO:TX:t=P:problem:kreska pseudotaktowa	!	!	!	!	!	!LO:TX:t=P:problem:kreska pseudotaktowa	!	!
1FF	-na	.	0F	-na	.	1A,<	-na	.	1f	-na	.
!LO:TX:t=P:problem:kreska pseudotaktowa	!	!	!	!	!	!	!	!	!LO:TX:t=P:problem:kreska pseudotaktowa	!	!
1rBB	.	.	.	.	.	2.c\	Do-	.	1rg	.	.
!	!	!	!	!	!	!LO:TX:t=P:problem:kreska pseudotaktowa	!	!	!	!	!
.	.	.	.	.	.	4c\	-mi-	.	.	.	.
=8-	=8-	=8-	=8-	=8-	=8-	=8-	=8-	=8-	=8-	=8-	=8-
2.C/	Do-	.	1.G	Do-	.	2G/	-nus	.	2rf	.	.
.	.	.	.	.	.	2.G/	Te-	.	2.g\	Do-	.
4C/	-mi-	.	.	.	.	.	.	.	.	.	.
2GG/	-nus	.	.	.	.	.	.	.	.	.	.
.	.	.	.	.	.	4A/	.	.	4g\	-mi-	.
*	*	*	*	*	*	*lig	*	*	*	*	*
!	!	!	!	!	!	!	!	!	!LO:TX:t=P:problem:kreska pseudotaktowa	!	!
!	!	!	!	!	!	!LO:LB:g=original	!	!	!	!	!
4GG/	te-	.	2G/	-mi-	.	1B-\	.	.	2d\	-nus	.
!LO:TX:t=P:problem:kreska pseudotaktowa	!	!	!	!	!	!	!	!	!	!	!
4AA/	.	.	.	.	.	.	.	.	.	.	.
=9-	=9-	=9-	=9-	=9-	=9-	=9-	=9-	=9-	=9-	=9-	=9-
!	!	!	!LO:TX:t=P:problem:kreska pseudotaktowa	!	!	!	!	!	!	!	!
4BB-/	.	.	1D	-nus	.	.	.	.	4d\	Te-	.
4C/	.	.	.	.	.	.	.	.	4e\	.	.
2.D/	.	.	.	.	.	1A	.	.	2.f\	.	.
*	*	*	*lig	*	*	*	*	*	*	*	*
!	!	!	!LO:PB:g=original	!	!	!	!	!	!	!	!
.	.	.	1F	Te-	.	.	.	.	.	.	.
4C/	.	.	.	.	.	.	.	.	4e\	.	.
*	*	*	*	*	*	*Xlig	*	*	*	*	*
4BB-/	.	.	.	.	.	1B-\	.	.	1d\	.	.
!LO:TX:t=P:problem:kreska pseudotaktowa	!	!	!	!	!	!	!	!	!	!	!
4AA/	.	.	.	.	.	.	.	.	.	.	.
=10-	=10-	=10-	=10-	=10-	=10-	=10-	=10-	=10-	=10-	=10-	=10-
2GG/	.	.	1E	.	.	.	.	.	.	.	.
!	!	!	!	!	!	!	!	!	!LO:TX:t=P:problem:kreska pseudotaktowa	!	!
!	!	!	!	!	!	!LO:TX:t=P:problem:kreska pseudotaktowa	!	!	!	!	!
2AA/	.	.	.	.	.	2A\	.	.	2c#X/	.	.
*	*	*	*Xlig	*	*	*	*	*	*	*	*
!LO:TX:t=P:problem:kreska pseudotaktowa	!	!	!LO:TX:t=P:problem:kreska pseudotaktowa	!	!	!LO:TX:t=P:problem:kreska pseudotaktowa	!	!	!LO:TX:t=P:problem:kreska pseudotaktowa	!	!
1D	-cum	.	0D	-cum	.	1A	-cum	.	1d,<	-cum.	.
=11-	=11-	=11-	=11-	=11-	=11-	=11-	=11-	=11-	=11-	=11-	=11-
*	*	*	*	*	*	*	*	*	*lig	*	*
2rBB	.	.	.	.	.	1r	.	.	1d	be-	.
1D	be-	.	.	.	.	.	.	.	.	.	.
*	*	*	*lig	*	*	*	*	*	*	*	*
.	.	.	1A	be-	.	2r	.	.	1f	.	.
1F\	-ne-	.	.	.	.	1A\	be-	.	.	.	.
*	*	*	*	*	*	*	*	*	*Xlig	*	*
=12-	=12-	=12-	=12-	=12-	=12-	=12-	=12-	=12-	=12-	=12-	=12-
.	.	.	1c	.	.	.	.	.	2c\ny	-ne-	.
!LO:TX:t=P:problem:kreska pseudotaktowa	!	!	!	!	!	!LO:TX:t=P:problem:kreska pseudotaktowa	!	!	!LO:TX:t=P:problem:kreska pseudotaktowa	!	!
2C/	-di-	.	.	.	.	2c\	-ne-	.	2e\	-di-	.
*	*	*	*Xlig	*	*	*	*	*	*	*	*
1D	-cta	.	1A	-ne-	.	2.F/	-di-	.	1f	-cta	.
.	.	.	.	.	.	4G/	-cta	.	.	.	.
=13-	=13-	=13-	=13-	=13-	=13-	=13-	=13-	=13-	=13-	=13-	=13-
2AA,</	Tu	.	1A	-di-	.	2A/	Tu	.	2e\	Tu	.
!LO:PB:g=original	!	!	!	!	!	!	!	!	!	!	!
!LO:TX:t=P:problem:kreska pseudotaktowa	!	!	!	!	!	!LO:TX:t=P:problem:kreska pseudotaktowa	!	!	!LO:TX:t=P:problem:kreska pseudotaktowa	!	!
2A\	in	.	.	.	.	2c#X\	in	.	2e\	in	.
!	!	!	!LO:TX:t=P:problem:kreska pseudotaktowa	!	!	!	!	!	!	!	!
2F\	mu-	.	1A	-cta	.	4d\	mu-	.	(>4f\	mu-	.
.	.	.	.	.	.	4A\	-li-	.	4e\)	.	.
2D/	-li-	.	.	.	.	1d\	-e-	.	(>4f\	-li-	.
!	!	!	!	!	!	!	!	!	!LO:TX:t=P:problem:kreska pseudotaktowa	!	!
.	.	.	.	.	.	.	.	.	4g\)	.	.
!	!	!	!	!	!	!	!	!	!LO:LB:g=original	!	!
=14-	=14-	=14-	=14-	=14-	=14-	=14-	=14-	=14-	=14-	=14-	=14-
!	!	!	!LO:TX:t=P:problem:kreska pseudotaktowa	!	!	!	!	!	!	!	!
2.A\	-e-	.	1A,<	Tu	.	.	.	.	2.e\	-e-	.
!	!	!	!	!	!	!LO:TX:t=P:problem:kreska pseudotaktowa	!	!	!	!	!
.	.	.	.	.	.	2c#X\	-ri-	.	.	.	.
!	!	!	!	!	!	!	!	!	!LO:TX:t=P:problem:kreska pseudotaktowa	!	!
4AA/	-ri-	.	.	.	.	.	.	.	4e\	-ri-	.
!LO:TX:t=P:problem:kreska pseudotaktowa	!	!	!	!	!	!	!	!	!	!	!
1D	-b(us)	.	1A	in	.	2d\	-bus	.	1f	-bus	.
!	!	!	!	!	!	!LO:TX:t=P:problem:kreska pseudotaktowa	!	!	!	!	!
.	.	.	.	.	.	2A/	in	.	.	.	.
=15-	=15-	=15-	=15-	=15-	=15-	=15-	=15-	=15-	=15-	=15-	=15-
!	!	!	!LO:SIC:v:s=A	!	!	!	!	!	!	!	!
00r	.	.	1B-X	mu-	.	1d	mu-	.	2d\	in	.
.	.	.	.	.	.	.	.	.	1g	mu-	.
.	.	.	1A	-li-	.	1cny	-li-	.	.	.	.
.	.	.	.	.	.	.	.	.	1f\	-li-	.
=16-	=16-	=16-	=16-	=16-	=16-	=16-	=16-	=16-	=16-	=16-	=16-
.	.	.	1.G	-e-	.	1.B-	-e-	.	.	.	.
.	.	.	.	.	.	.	.	.	4e\	-e-	.
!	!	!	!	!	!	!	!	!	!LO:TX:t=P:problem:kreska pseudotaktowa	!	!
.	.	.	.	.	.	.	.	.	4d\	.	.
.	.	.	.	.	.	.	.	.	2.e\	.	.
.	.	.	2G/	-ri-	.	2B-\	-ri-	.	.	.	.
.	.	.	.	.	.	.	.	.	4e\	-ri-	.
!	!	!	!	!	!	!LO:LB:g=original	!	!	!	!	!
=17-	=17-	=17-	=17-	=17-	=17-	=17-	=17-	=17-	=17-	=17-	=17-
!	!	!	!LO:TX:t=P:problem:kreska pseudotaktowa	!	!	!LO:TX:t=P:problem:kreska pseudotaktowa	!	!	!LO:TX:t=P:problem:kreska pseudotaktowa	!	!
1F	et	.	1F,<	-bus	.	1A	-bus	.	1f	-bus.	.
4C/	be-	.	1G	et	.	2rG	.	.	1rg	.	.
(<4BBn/	.	.	.	.	.	.	.	.	.	.	.
!	!	!	!	!	!	!LO:TX:t=P:problem:kreska pseudotaktowa	!	!	!	!	!
(4C/)	-ne-	.	.	.	.	2c\	et	.	.	.	.
!LO:TX:t=P:problem:kreska pseudotaktowa	!	!	!	!	!	!	!	!	!	!	!
(<4D/	.	.	.	.	.	.	.	.	.	.	.
=18-	=18-	=18-	=18-	=18-	=18-	=18-	=18-	=18-	=18-	=18-	=18-
4E\)	-di-	.	1G	be-	.	(<4G/	be-	.	2r	.	.
4D\	.	.	.	.	.	4F#X/)	.	.	.	.	.
!	!	!	!	!	!	!	!	!	!LO:TX:t=P:problem:kreska pseudotaktowa	!	!
4E\	.	.	.	.	.	(<4G/	-ne-	.	2g\	et	.
!	!	!	!	!	!	!LO:TX:t=P:problem:kreska pseudotaktowa	!	!	!	!	!
4F\	.	.	.	.	.	4A/)	.	.	.	.	.
!LO:TX:t=P:problem:kreska pseudotaktowa	!	!	!	!	!	!	!	!	!	!	!
1G	.	.	1G	-ne-	.	4Bn\	-di-	.	(>4d\	be-	.
.	.	.	.	.	.	4A\	.	.	4c\)	.	.
.	.	.	.	.	.	4B\	.	.	4d\	-ne-	.
!	!	!	!	!	!	!LO:TX:t=P:problem:kreska pseudotaktowa	!	!	!	!	!
.	.	.	.	.	.	4G\	.	.	8e\L	.	.
!	!	!	!	!	!	!	!	!	!LO:TX:t=P:problem:kreska pseudotaktowa	!	!
.	.	.	.	.	.	.	.	.	8f\J	.	.
!	!	!	!LO:LB:g=original	!	!	!	!	!	!	!	!
=19-	=19-	=19-	=19-	=19-	=19-	=19-	=19-	=19-	=19-	=19-	=19-
2C/	-ct(us)	.	1G	-di-	.	1c	.	.	1g	-di-	.
2.C/	fru-	.	.	.	.	.	.	.	.	.	.
!	!	!	!	!	!	!	!	!	!LO:TX:t=P:problem:kreska pseudotaktowa	!	!
.	.	.	1G,<	-ct(us)	.	2G/	-ct(us)	.	1e	-ctus	.
4D/	-ct(us)	.	.	.	.	.	.	.	.	.	.
!	!	!	!	!	!	!LO:TX:t=P:problem:kreska pseudotaktowa	!	!	!	!	!
4E\	ven-	.	.	.	.	2.G/	fru-	.	.	.	.
!LO:TX:t=P:problem:kreska pseudotaktowa	!	!	!	!	!	!	!	!	!	!	!
4F\	-tris	.	.	.	.	.	.	.	.	.	.
=20-	=20-	=20-	=20-	=20-	=20-	=20-	=20-	=20-	=20-	=20-	=20-
1G	Tu-	.	1G	fru-	.	.	.	.	2rA	.	.
.	.	.	.	.	.	4A/	-ct(us)	.	.	.	.
.	.	.	.	.	.	4Bn\	ven-	.	2.G/	fru-	.
!	!	!	!	!	!	!LO:TX:t=P:problem:kreska pseudotaktowa	!	!	!	!	!
.	.	.	.	.	.	4c\	-tris	.	.	.	.
2G\	-i	.	1G	-ctus	.	2.d\	Tu-	.	.	.	.
!	!	!	!	!	!	!	!	!	!LO:TX:a:t=P:problem:4/middle:global	!	!
.	.	.	.	.	.	.	.	.	4A/	-ct(us)	.
2.GG/	fru-	.	.	.	.	.	.	.	4Bn/	ven-	.
!	!	!	!	!	!	!LO:TX:t=P:problem:kreska pseudotaktowa	!	!	!LO:TX:t=P:problem:kreska pseudotaktowa	!	!
.	.	.	.	.	.	4c\	.	.	4c/	-tris	.
!	!	!	!	!	!	!	!	!	!LO:LB:g=original	!	!
=21-	=21-	=21-	=21-	=21-	=21-	=21-	=21-	=21-	=21-	=21-	=21-
*	*	*	*	*	*	*lig	*	*	*	*	*
.	.	.	1G	ven-	.	1B-X	.	.	1d	Tu-	.
4AA/	-ct(us)	.	.	.	.	.	.	.	.	.	.
4BB-X/	ven-	.	.	.	.	.	.	.	.	.	.
4C/	-tris	.	.	.	.	.	.	.	.	.	.
!LO:LB:g=original	!	!	!	!	!	!	!	!	!	!	!
2.D/	Tu-	.	1D	-tris	.	1A	.	.	2d\	-i	.
.	.	.	.	.	.	.	.	.	2.f\	ven-	.
!LO:TX:t=P:problem:kreska pseudotaktowa	!	!	!	!	!	!	!	!	!	!	!
4C/	.	.	.	.	.	.	.	.	.	.	.
*	*	*	*	*	*	*Xlig	*	*	*	*	*
=22-	=22-	=22-	=22-	=22-	=22-	=22-	=22-	=22-	=22-	=22-	=22-
*	*	*	*lig	*	*	*	*	*	*	*	*
2.BB-/	.	.	1F	Tu-	.	1.B-	.	.	.	.	.
.	.	.	.	.	.	.	.	.	4e\	-tris	.
.	.	.	.	.	.	.	.	.	1d	Tu-	.
!LO:TX:t=P:problem:kreska pseudotaktowa	!	!	!	!	!	!	!	!	!	!	!
4AA/	.	.	.	.	.	.	.	.	.	.	.
2GG/	.	.	1E	.	.	.	.	.	.	.	.
!LO:TX:t=P:problem:kreska pseudotaktowa	!	!	!	!	!	!LO:TX:t=P:problem:kreska pseudotaktowa	!	!	!LO:TX:t=P:problem:kreska pseudotaktowa	!	!
2AA/	.	.	.	.	.	2A/	.	.	2c#X/	-i	.
*	*	*	*Xlig	*	*	*	*	*	*	*	*
=23-	=23-	=23-	=23-	=23-	=23-	=23-	=23-	=23-	=23-	=23-	=23-
!	!	!	!LO:TX:a:i:t=6	!	!	!	!	!	!LO:TX:t=P:problem:kreska pseudotaktowa	!	!
2D/	-i	.	00.D;>	-i	.	2A/	-i	.	1d	.	.
!	!	!	!	!	!	!LO:LB:g=original	!	!	!	!	!
2.GG/	fru-	.	.	.	.	1B-X	fru-	.	.	.	.
.	.	.	.	.	.	.	.	.	2rf	.	.
4AA/	-ct(us)	.	.	.	.	.	.	.	.	.	.
!	!	!	!	!	!	!LO:TX:t=P:problem:kreska pseudotaktowa	!	!	!	!	!
4BB-/	ven-	.	.	.	.	2B-\	-ct(us)	.	2.g\	fru-	.
!LO:TX:t=P:problem:kreska pseudotaktowa	!	!	!	!	!	!	!	!	!	!	!
4C/	-tris	.	.	.	.	.	.	.	.	.	.
=24-	=24-	=24-	=24-	=24-	=24-	=24-	=24-	=24-	=24-	=24-	=24-
*lig	*	*	*	*	*	*	*	*	*	*	*
1D	Tu-	.	.	.	.	2A/	ven-	.	.	.	.
.	.	.	.	.	.	.	.	.	4g\	-ct(us)	.
.	.	.	.	.	.	2A/	-tris	.	4f#X\	ven-	.
!	!	!	!	!	!	!	!	!	!LO:TX:t=P:problem:kreska pseudotaktowa	!	!
.	.	.	.	.	.	.	.	.	4f#\	-tris	.
1GG	.	.	.	.	.	1B-	Tu-	.	1g	Tu-	.
*Xlig	*	*	*	*	*	*	*	*	*	*	*
=25-	=25-	=25-	=25-	=25-	=25-	=25-	=25-	=25-	=25-	=25-	=25-
0D;;	-i.	.	.	.	.	0A;;	-i.	.	0f#X;;	-i.	.
=26||	=26||	=26||	=26||	=26||	=26||	=26||	=26||	=26||	=26||	=26||	=26||
*k[]	*	*	*k[]	*	*	*k[]	*	*	*k[]	*	*
*M3/4	*	*	*M3/4	*	*	*M3/4	*	*	*M3/4	*	*
!	!	!	!	!	!	!	!	!	!LO:TX:t=P:problem:brak ♮ przy kluczu	!	!
4r	.	.	2.r	.	.	4r	.	.	4r	.	.
4D/	A-	.	.	.	.	4A\	A-	.	4f\	A-	.
!LO:TX:t=P:problem:kreska pseudotaktowa	!	!	!	!	!	!LO:TX:t=P:problem:kreska pseudotaktowa	!	!	!LO:TX:t=P:problem:kreska pseudotaktowa	!	!
4C#X/	-ve	.	.	.	.	4A\	-ve	.	4e\	-ve	.
=27-	=27-	=27-	=27-	=27-	=27-	=27-	=27-	=27-	=27-	=27-	=27-
2D/	a-	.	4r	.	.	8d\L	a-	.	8f\L	a-	.
.	.	.	.	.	.	8c#X\	.	.	8e\	.	.
!	!	!	!LO:TX:t=P:problem:4,8/middle or right:global	!	!	!	!	!	!	!	!
.	.	.	4A/	A-	.	8d\	.	.	8f\	.	.
.	.	.	.	.	.	8Bn\	.	.	8d\	.	.
!LO:TX:t=P:problem:kreska pseudotaktowa	!	!	!LO:TX:t=P:problem:kreska pseudotaktowa	!	!	!	!	!	!	!	!
4AA/	-ve	.	4A/	-ve	.	8.c#X\	.	.	8.e\	.	.
!	!	!	!	!	!	!LO:TX:t=P:problem:kreska pseudotaktowa	!	!	!	!	!
.	.	.	.	.	.	16d\Jk	.	.	16f\Jk	.	.
=28-	=28-	=28-	=28-	=28-	=28-	=28-	=28-	=28-	=28-	=28-	=28-
4r	.	.	2A/	a-	.	4c#X\	-ve	.	2.e\	.	.
*	*ij	*	*	*	*	*	*	*	*	*	*
*	*	*	*	*	*	*	*ij	*	*	*	*
4A\	a-	.	.	.	.	4cn\	a-	.	.	.	.
!LO:TX:t=P:problem:kreska pseudotaktowa	!	!	!LO:TX:t=P:problem:kreska pseudotaktowa	!	!	!	!	!	!	!	!
!	!	!	!LO:SIC:v:custos:e	!	!	!	!	!	!	!	!
4G#X\	-ve	.	4E/	-ve	.	4B\	-ve	.	.	.	.
*	*	*	*	*	*	*	*Xij	*	*	*	*
!	!	!	!LO:LB:g=original	!	!	!	!	!	!LO:LB:g=original	!	!
=29-	=29-	=29-	=29-	=29-	=29-	=29-	=29-	=29-	=29-	=29-	=29-
!	!	!	!LO:TX:t=P:problem:4,8\middle or left:global	!	!	!	!	!	!	!	!
2A\	a-	.	4e\	Re-	.	2c\	a-	.	4e\	-ve	.
.	.	.	4e\	-gi-	.	.	.	.	4a\	a-	.
!LO:TX:t=P:problem:kreska pseudotaktowa	!	!	!	!	!	!LO:TX:t=P:problem:kreska pseudotaktowa	!	!	!LO:TX:t=P:problem:kreska pseudotaktowa	!	!
4E\	-ve	.	8e\	-na	.	4B\	.	.	4g#X\	-ve	.
*	*Xij	*	*	*	*	*	*	*	*	*	*
!	!	!	!LO:TX:t=P:problem:kreska pseudotaktowa	!	!	!	!	!	!	!	!
.	.	.	8d\	Cae-	.	.	.	.	.	.	.
!LO:LB:g=original	!	!	!	!	!	!	!	!	!	!	!
=30-	=30-	=30-	=30-	=30-	=30-	=30-	=30-	=30-	=30-	=30-	=30-
*	*	*	*	*	*	*	*	*	*	*ij	*
4A\	Re-	.	(>2c\	-lo-	.	4A/	-ve	.	2a\	a-	.
4A\	-gi-	.	.	.	.	4r	.	.	.	.	.
!	!	!	!LO:TX:t=P:problem:kreska pseudotaktowa	!	!	!	!	!	!LO:TX:t=P:problem:kreska pseudotaktowa	!	!
8G#X\	-na	.	4Bn\)	.	.	4r	.	.	4e\	-ve	.
*	*	*	*	*	*	*	*	*	*	*Xij	*
!LO:TX:t=P:problem:kreska pseudotaktowa	!	!	!	!	!	!	!	!	!	!	!
8G#\	Cae-	.	.	.	.	.	.	.	.	.	.
=31-	=31-	=31-	=31-	=31-	=31-	=31-	=31-	=31-	=31-	=31-	=31-
2A\	-lo-	.	4A,<\	-rum	.	4e\	Re-	.	2.rg	.	.
.	.	.	4c\	Ma-	.	4e\	-gi-	.	.	.	.
!LO:TX:t=P:problem:kreska pseudotaktowa	!	!	!LO:TX:t=P:problem:kreska pseudotaktowa	!	!	!	!	!	!	!	!
4F\	.	.	4A\	-ter	.	8d\	-na	.	.	.	.
!	!	!	!	!	!	!LO:TX:t=P:problem:kreska pseudotaktowa	!	!	!	!	!
.	.	.	.	.	.	8d\	Cae-	.	.	.	.
=32-	=32-	=32-	=32-	=32-	=32-	=32-	=32-	=32-	=32-	=32-	=32-
!LO:TX:t=P:problem:kreska pseudotaktowa	!	!	!	!	!	!	!	!	!	!	!
2.E\	-rum	.	2Bn\	.	.	2e\	-lo-	.	4a\	Re-	.
.	.	.	.	.	.	.	.	.	4a\	-gi-	.
!	!	!	!LO:TX:t=P:problem:kreska pseudotaktowa	!	!	!	!	!	!	!	!
.	.	.	4B\	Re-	.	4B\	-rum	.	8g#X\	-na	.
!	!	!	!	!	!	!	!	!	!LO:TX:t=P:problem:kreska pseudotaktowa	!	!
.	.	.	.	.	.	.	.	.	8g#\	Cae-	.
!	!	!	!	!	!	!LO:LB:g=original	!	!	!	!	!
=33-	=33-	=33-	=33-	=33-	=33-	=33-	=33-	=33-	=33-	=33-	=33-
2A\	Ma-	.	4.c\	-gis	.	4r	.	.	2a\	-lo-	.
.	.	.	.	.	.	4c\	Ma-	.	.	.	.
!	!	!	!LO:TX:t=P:problem:mixed beam	!	!	!	!	!	!	!	!
.	.	.	8d\L	an-	.	.	.	.	.	.	.
!	!	!	!	!	!	!LO:TX:t=P:problem:kreska pseudotaktowa	!	!	!LO:TX:t=P:problem:kreska pseudotaktowa	!	!
4G\ny	-ter	.	8e\	.	.	4B\	-ter	.	4e\	-rum	.
!	!	!	!LO:TX:t=P:problem:kreska pseudotaktowa	!	!	!	!	!	!	!	!
.	.	.	8E/J	.	.	.	.	.	.	.	.
=34-	=34-	=34-	=34-	=34-	=34-	=34-	=34-	=34-	=34-	=34-	=34-
2F\	Re-	.	8A\L	.	.	8c\L	.	.	2a\	Ma-	.
.	.	.	8G\	.	.	8B\	Re-	.	.	.	.
.	.	.	8A\	.	.	8c\	.	.	.	.	.
.	.	.	8B\J	.	.	8d\J	.	.	.	.	.
!LO:TX:t=P:problem:kreska pseudotaktowa	!	!	!LO:TX:t=P:problem:kreska pseudotaktowa	!	!	!LO:TX:t=P:problem:kreska pseudotaktowa	!	!	!LO:TX:t=P:problem:kreska pseudotaktowa	!	!
4E\	-gis	.	4c\	.	.	4e\	-gis	.	4g\ny	-ter	.
=35-	=35-	=35-	=35-	=35-	=35-	=35-	=35-	=35-	=35-	=35-	=35-
4.D/	an-	.	2d\	.	.	4.A\	Re-	.	4.f\	Re-	.
8C/ny	.	.	.	.	.	8A\	-gis	.	8e\	-gis	.
!	!	!	!LO:TX:t=P:problem:kreska pseudotaktowa	!	!	!LO:TX:t=P:problem:kreska pseudotaktowa	!	!	!	!	!
4BBn/	.	.	4G#X/	-ge-	.	4B\	an-	.	8d\	an-	.
!	!	!	!	!	!	!	!	!	!LO:TX:t=P:problem:kreska pseudotaktowa	!	!
.	.	.	.	.	.	.	.	.	8d\	-ge-	.
=36-	=36-	=36-	=36-	=36-	=36-	=36-	=36-	=36-	=36-	=36-	=36-
4AA/	-ge-	.	2A/	-lo-	.	4c\	-ge-	.	8c\L	-lo-	.
.	.	.	.	.	.	.	.	.	8d\J	.	.
!LO:TX:t=P:problem:kreska pseudotaktowa	!	!	!	!	!	!LO:TX:t=P:problem:kreska pseudotaktowa	!	!	!LO:TX:t=P:problem:kreska pseudotaktowa	!	!
2E\	-lo-	.	.	.	.	2B\	-lo-	.	2e\	.	.
!	!	!	!LO:TX:t=P:problem:kreska pseudotaktowa	!	!	!	!	!	!	!	!
.	.	.	4G#X/	.	.	.	.	.	.	.	.
=37-	=37-	=37-	=37-	=37-	=37-	=37-	=37-	=37-	=37-	=37-	=37-
2AA/	-rum.	.	2A/	-rum	.	4A,<\	-rum	.	2e\	-rum	.
.	.	.	.	.	.	4e\	.	.	.	.	.
!LO:TX:t=P:problem:kreska pseudotaktowa	!	!	!	!	!	!LO:TX:t=P:problem:kreska pseudotaktowa	!	!	!LO:TX:t=P:problem:kreska pseudotaktowa	!	!
4r	.	.	4r	.	.	4d\	Ma-	.	4r	.	.
!	!	!	!LO:LB:g=original	!	!	!	!	!	!LO:LB:g=original	!	!
=38-	=38-	=38-	=38-	=38-	=38-	=38-	=38-	=38-	=38-	=38-	=38-
!	!	!	!	!	!	!	!	!	!LO:TX:t=P:problem:kreska pseudotaktowa	!	!
0.rC	.	.	4r	.	.	2c\	-ter	.	2.rg	.	.
.	.	.	4e\	Ma-	.	.	.	.	.	.	.
!	!	!	!LO:TX:t=P:problem:kreska pseudotaktowa	!	!	!	!	!	!	!	!
.	.	.	4d\	-ter	.	4B\	Re-	.	.	.	.
=39-	=39-	=39-	=39-	=39-	=39-	=39-	=39-	=39-	=39-	=39-	=39-
.	.	.	4c\	ma-	.	(>4.A\	-gis	.	4r	.	.
.	.	.	4A/	-ter	.	.	.	.	4a\	Ma-	.
.	.	.	.	.	.	8B\)	an-	.	.	.	.
!	!	!	!LO:TX:t=P:problem:kreska pseudotaktowa	!	!	!LO:TX:t=P:problem:kreska pseudotaktowa	!	!	!LO:TX:t=P:problem:kreska pseudotaktowa	!	!
.	.	.	4r	.	.	4c#X\	-ge-	.	4g\	-ter	.
=40-	=40-	=40-	=40-	=40-	=40-	=40-	=40-	=40-	=40-	=40-	=40-
.	.	.	4r	.	.	4d\	-lo-	.	2f\	.	.
*	*	*	*	*ij	*	*	*	*	*	*	*
.	.	.	4d\	ma-	.	4d\	-rum	.	.	.	.
!	!	!	!LO:TX:t=P:problem:kreska pseudotaktowa	!	!	!LO:TX:t=P:problem:kreska pseudotaktowa	!	!	!LO:TX:t=P:problem:kreska pseudotaktowa	!	!
.	.	.	4c\	-ter	.	4r	.	.	4e\	Re-	.
*	*	*	*	*Xij	*	*	*	*	*	*	*
=41-	=41-	=41-	=41-	=41-	=41-	=41-	=41-	=41-	=41-	=41-	=41-
.	.	.	2B-X\	Re-	.	4r	.	.	8d\L	-gis	.
.	.	.	.	.	.	.	.	.	8c\	an-	.
.	.	.	.	.	.	4d\	.	.	8d\	.	.
.	.	.	.	.	.	.	.	.	8e\J	.	.
!	!	!	!LO:TX:t=P:problem:kreska pseudotaktowa	!	!	!	!	!	!LO:TX:t=P:problem:kreska pseudotaktowa	!	!
.	.	.	4A/	-gis	.	4c\ny	Ma-	.	4f\	.	.
=42-	=42-	=42-	=42-	=42-	=42-	=42-	=42-	=42-	=42-	=42-	=42-
!LO:TX:t=P:problem:kreska pseudotaktowa	!	!	!	!	!	!	!	!	!	!	!
1.rD	.	.	4.G/ny	an-	.	4.Bn\	-ter	.	4.g\	.	.
.	.	.	8F/	.	.	8B\	Re-	.	8d\	.	.
!	!	!	!LO:TX:t=P:problem:kreska pseudotaktowa	!	!	!LO:TX:t=P:problem:kreska pseudotaktowa	!	!	!LO:TX:t=P:problem:kreska pseudotaktowa	!	!
.	.	.	4E/	.	.	4c#X\	-gis	.	4g\	.	.
=43-	=43-	=43-	=43-	=43-	=43-	=43-	=43-	=43-	=43-	=43-	=43-
.	.	.	4D/	-ge-	.	4d\	an-	.	4f\	-ge-	.
.	.	.	2A/	-lo-	.	(>4d\	-ge-	.	2e\	-lo-	.
!	!	!	!	!	!	!LO:TX:t=P:problem:# above	!	!	!	!	!
.	.	.	.	.	.	4c#X\)	-lo-	.	.	.	.
!	!	!	!	!	!	!LO:LB:g=original	!	!	!	!	!
=44-	=44-	=44-	=44-	=44-	=44-	=44-	=44-	=44-	=44-	=44-	=44-
!	!	!	!LO:TX:t=P:problem:kreska pseudotaktowa	!	!	!	!	!	!LO:TX:t=P:problem:kreska pseudotaktowa	!	!
4r	.	.	2.D/	-rum.	.	2d,<\	-rum,	.	2.f\	-rum	.
4D/	ô	.	.	.	.	.	.	.	.	.	.
!LO:TX:t=P:problem:kreska pseudotaktowa	!	!	!	!	!	!LO:TX:t=P:problem:kreska pseudotaktowa	!	!	!	!	!
4D/	Ma-	.	.	.	.	4A/	ô	.	.	.	.
=45-	=45-	=45-	=45-	=45-	=45-	=45-	=45-	=45-	=45-	=45-	=45-
2F\	-ri-	.	4A/	ô	.	4A/	Ma-	.	1.r	.	.
!	!	!	!	!	!	!LO:TX:t=P:problem:kreska pseudotaktowa	!	!	!	!	!
.	.	.	4A/	Ma-	.	2c\ny	-ri-	.	.	.	.
2C/	-a	.	2c\	-ri-	.	.	.	.	.	.	.
=46-	=46-	=46-	=46-	=46-	=46-	=46-	=46-	=46-	=46-	=46-	=46-
.	.	.	.	.	.	2G/	-a	.	.	.	.
!LO:LB:g=original	!	!	!LO:TX:t=P:problem:kreska pseudotaktowa	!	!	!	!	!	!	!	!
4E\	o	.	2G/	-a	.	.	.	.	.	.	.
!LO:TX:t=P:problem:kreska pseudotaktowa	!	!	!	!	!	!LO:TX:t=P:problem:kreska pseudotaktowa	!	!	!	!	!
4E\	Ma-	.	.	.	.	4B\	o	.	.	.	.
=47-	=47-	=47-	=47-	=47-	=47-	=47-	=47-	=47-	=47-	=47-	=47-
2G\	-ri-	.	4B\ny	o	.	4B\	Ma-	.	4r	.	.
!	!	!	!	!	!	!LO:TX:t=P:problem:kreska pseudotaktowa	!	!	!	!	!
.	.	.	4B\	Ma-	.	2d\	-ri-	.	4d\	ô	.
!	!	!	!	!	!	!	!	!	!LO:TX:t=P:problem:kreska pseudotaktowa	!	!
2D/	-a	.	2d\	-ri-	.	.	.	.	4d\	Ma-	.
=48-	=48-	=48-	=48-	=48-	=48-	=48-	=48-	=48-	=48-	=48-	=48-
.	.	.	.	.	.	2A\	-a	.	2f\	-ri-	.
!	!	!	!LO:TX:t=P:problem:kreska pseudotaktowa	!	!	!	!	!	!	!	!
4F\	o	.	2A\	-a	.	.	.	.	.	.	.
*	*	*	*	*	*	*	*ij	*	*	*	*
!LO:TX:t=P:problem:kreska pseudotaktowa	!	!	!	!	!	!LO:TX:t=P:problem:kreska pseudotaktowa	!	!	!	!	!
4F\	Ma-	.	.	.	.	4c\	o	.	2c\	-a	.
!	!	!	!LO:LB:g=original	!	!	!	!	!	!	!	!
=49-	=49-	=49-	=49-	=49-	=49-	=49-	=49-	=49-	=49-	=49-	=49-
*	*	*	*	*ij	*	*	*	*	*	*	*
2A\	-ri-	.	4c\	o	.	4c\	Ma-	.	.	.	.
*	*	*	*	*	*	*	*	*	*	*ij	*
!	!	!	!	!	!	!LO:TX:t=P:problem:kreska pseudotaktowa	!	!	!	!	!
.	.	.	4c\	Ma-	.	2e\	-ri-	.	4e\	ô	.
!	!	!	!	!	!	!	!	!	!LO:TX:t=P:problem:kreska pseudotaktowa	!	!
2E\	-a	.	2e\	-ri-	.	.	.	.	4e\	Ma-	.
=50-	=50-	=50-	=50-	=50-	=50-	=50-	=50-	=50-	=50-	=50-	=50-
.	.	.	.	.	.	2B\	-a	.	2g\	-ri-	.
*	*	*	*	*	*	*	*Xij	*	*	*	*
!LO:TX:t=P:problem:kreska pseudotaktowa	!	!	!LO:TX:t=P:problem:kreska pseudotaktowa	!	!	!	!	!	!	!	!
2G\	flos	.	2B\	-a	.	.	.	.	.	.	.
*	*	*	*	*Xij	*	*	*	*	*	*	*
!	!	!	!	!	!	!LO:TX:t=P:problem:kreska pseudotaktowa	!	!	!LO:N:vis=2	!	!
.	.	.	.	.	.	4B\	flos	.	4d\	-a	.
*	*	*	*	*	*	*	*	*	*	*Xij	*
!	!	!	!	!	!	!	!	!	!LO:LB:g=original	!	!
=51-	=51-	=51-	=51-	=51-	=51-	=51-	=51-	=51-	=51-	=51-	=51-
4A\	.	.	4e\	flos	.	8A\L	Vir-	.	8c\L	flos	.
.	.	.	.	.	.	8B\J	.	.	8d\J	.	.
4.E\	Vir-	.	4.e\	Vir-	.	4.G#X/	-gi-	.	4.Bn/	Vir-	.
!LO:TX:t=P:problem:kreska pseudotaktowa	!	!	!LO:TX:t=P:problem:kreska pseudotaktowa	!	!	!LO:TX:t=P:problem:kreska pseudotaktowa	!	!	!LO:TX:t=P:problem:kreska pseudotaktowa	!	!
8E\	-gi-	.	8E/	-gi-	.	8G#/	-num	.	8B/	-gi-	.
=52-	=52-	=52-	=52-	=52-	=52-	=52-	=52-	=52-	=52-	=52-	=52-
!	!	!	!	!	!	!	!	!	!LO:TX:t=P:problem:# below	!	!
4AA,</	-num	.	4E,</	-num,	.	4A/	.	.	4c#X,</	-num	.
4F\	ve-	.	4A/	ve-	.	4c\	ve-	.	4f\	ve-	.
!	!	!	!	!	!	!	!	!	!LO:TX:t=P:problem:♮ below	!	!
!LO:TX:t=P:problem:kreska pseudotaktowa	!	!	!LO:TX:t=P:problem:kreska pseudotaktowa	!	!	!LO:TX:t=P:problem:kreska pseudotaktowa	!	!	!LO:TX:t=P:problem:kreska pseudotaktowa	!	!
4E\	-lut	.	4G/	-lut	.	4c\	-lut	.	4cn/	-lut	.
=53-	=53-	=53-	=53-	=53-	=53-	=53-	=53-	=53-	=53-	=53-	=53-
2F\	ro-	.	2A/	ro-	.	4c\	ro-	.	2f\	ro-	.
.	.	.	.	.	.	4c\	-sa	.	.	.	.
!LO:TX:t=P:problem:kreska pseudotaktowa	!	!	!	!	!	!	!	!	!LO:TX:t=P:problem:kreska pseudotaktowa	!	!
4C/	-sa	.	4G/	-sa	.	2c\	vel	.	4e\	-sa	.
=54-	=54-	=54-	=54-	=54-	=54-	=54-	=54-	=54-	=54-	=54-	=54-
4F\	vel	.	4A/	vel	.	.	.	.	4f\	vel	.
4.G\	li-	.	4.G/	li-	.	4c\	li-	.	4.d\	li-	.
!	!	!	!	!	!	!LO:TX:t=P:problem:kreska pseudotaktowa	!	!	!	!	!
.	.	.	.	.	.	4B\	-li-	.	.	.	.
!LO:TX:t=P:problem:kreska pseudotaktowa	!	!	!LO:TX:t=P:problem:kreska pseudotaktowa	!	!	!	!	!	!LO:TX:t=P:problem:kreska pseudotaktowa	!	!
8GG/	-li-	.	8G/	-li-	.	.	.	.	8d\	-li-	.
=55-	=55-	=55-	=55-	=55-	=55-	=55-	=55-	=55-	=55-	=55-	=55-
4C,</	-um,	.	4G,</	-um	.	4c,<\	-um,	.	4e,<\	-um,	.
4c\	ve-	.	4c\	ve-	.	4e\	ve-	.	4g\	ve-	.
!LO:TX:t=P:problem:kreska pseudotaktowa	!	!	!LO:TX:t=P:problem:kreska pseudotaktowa	!	!	!LO:TX:t=P:problem:kreska pseudotaktowa	!	!	!LO:TX:t=P:problem:kreska pseudotaktowa	!	!
4B\	-lut	.	4d\	-lut	.	4d\	-lut	.	4g\	-lut	.
=56-	=56-	=56-	=56-	=56-	=56-	=56-	=56-	=56-	=56-	=56-	=56-
2c\	ro-	.	2c\	ro-	.	2e\	ro-	.	4g\	ro-	.
.	.	.	.	.	.	.	.	.	4g\	-sa	.
!	!	!	!LO:TX:t=P:problem:kreska pseudotaktowa	!	!	!LO:TX:t=P:problem:kreska pseudotaktowa	!	!	!	!	!
4G\	-sa	.	4d\	-sa	.	4d\	-sa	.	2g\	vel	.
!LO:LB:g=original	!	!	!	!	!	!LO:LB:g=original	!	!	!	!	!
=57-	=57-	=57-	=57-	=57-	=57-	=57-	=57-	=57-	=57-	=57-	=57-
4C/	vel	.	4e\	vel	.	4c\	vel	.	.	.	.
4.D/	li-	.	4.d\	li-	.	4.A\	li-	.	4g\	li-	.
!	!	!	!	!	!	!	!	!	!LO:TX:t=P:problem:kreska pseudotaktowa	!	!
.	.	.	.	.	.	.	.	.	4f#X\	-li-	.
!	!	!	!LO:TX:t=P:problem:kreska pseudotaktowa	!	!	!	!	!	!	!	!
8D/	-li-	.	8d\	-li-	.	8A\	-li-	.	.	.	.
=58-	=58-	=58-	=58-	=58-	=58-	=58-	=58-	=58-	=58-	=58-	=58-
!LO:TX:t=P:problem:kreska pseudotaktowa	!	!	!	!	!	!	!	!	!	!	!
2.GG/	-um	.	2d\	-um	.	2.B\	-um	.	2.g\	-um.	.
.	.	.	4ryy	.	.	.	.	.	.	.	.
!	!	!	!LO:LB:g=original	!	!	!	!	!	!LO:PB:g=original	!	!
=59||-	=59||-	=59||-	=59||-	=59||-	=59||-	=59||-	=59||-	=59||-	=59||-	=59||-	=59||-
*M2/1	*	*	*M2/1	*	*	*M2/1	*	*	*M2/1	*	*
*met(C|)	*	*	*met(C|)	*	*	*met(C|)	*	*	*met(C|)	*	*
!LO:TX:t=P:problem:kreska pseudotaktowa	!	!	!	!	!	!	!	!	!	!	!
!	!	!	!LO:TX:t=P:problem:kreska pseudotaktowa	!	!	!	!	!	!	!	!
0r	.	.	1re	.	.	(>4d\	Fun-	.	0rg	.	.
.	.	.	.	.	.	4e\)	.	.	.	.	.
.	.	.	.	.	.	(>4d\	-de	.	.	.	.
!	!	!	!	!	!	!LO:TX:t=P:problem:kreska pseudotaktowa	!	!	!	!	!
.	.	.	.	.	.	4c\)	.	.	.	.	.
.	.	.	(>4d\	Fun-	.	(>2.B\	pre-	.	.	.	.
.	.	.	4e\)	.	.	.	.	.	.	.	.
.	.	.	(>4d\	-de	.	.	.	.	.	.	.
!	!	!	!LO:TX:t=P:problem:kreska pseudotaktowa	!	!	!LO:TX:t=P:problem:kreska pseudotaktowa	!	!	!	!	!
.	.	.	4c\)	.	.	4A\)	.	.	.	.	.
=60-	=60-	=60-	=60-	=60-	=60-	=60-	=60-	=60-	=60-	=60-	=60-
!	!	!	!	!	!	!	!	!	!LO:TX:t=P:problem:kreska pseudotaktowa	!	!
(>4G\	Fun-	.	2.Bn\	pre-	.	2G/ny	-ces	.	1rg	.	.
4A\)	.	.	.	.	.	.	.	.	.	.	.
!	!	!	!	!	!	!LO:TX:t=P:problem:kreska pseudotaktowa	!	!	!	!	!
(>4G\	-de	.	.	.	.	2B\	ad	.	.	.	.
!LO:TX:t=P:problem:kreska pseudotaktowa	!	!	!LO:TX:t=P:problem:kreska pseudotaktowa	!	!	!	!	!	!	!	!
4F\)	.	.	4A/	.	.	.	.	.	.	.	.
(>2.E\	pre-	.	2G/	-ces	.	2c\	Fi-	.	(>4g\	Fun-	.
.	.	.	.	.	.	.	.	.	4a\)	.	.
!	!	!	!LO:TX:t=P:problem:kreska pseudotaktowa	!	!	!	!	!	!	!	!
.	.	.	2G/	ad	.	4c\	-li-	.	(>4g\	-de	.
!LO:TX:t=P:problem:kreska pseudotaktowa	!	!	!	!	!	!LO:TX:t=P:problem:kreska pseudotaktowa	!	!	!LO:TX:t=P:problem:kreska pseudotaktowa	!	!
4D\)	.	.	.	.	.	4c\	-um	.	4f\)ny	.	.
=61-	=61-	=61-	=61-	=61-	=61-	=61-	=61-	=61-	=61-	=61-	=61-
2C/	-ces	.	2c\	Fi-	.	4c\	fun-	.	(>2.e\	pre-	.
.	.	.	.	.	.	4d\	.	.	.	.	.
!LO:TX:t=P:problem:kreska pseudotaktowa	!	!	!LO:TX:t=P:problem:kreska pseudotaktowa	!	!	!	!	!	!	!	!
2C/	ad	.	2G/	-li-	.	(>4c\	de	.	.	.	.
!	!	!	!	!	!	!LO:TX:t=P:problem:kreska pseudotaktowa	!	!	!	!	!
.	.	.	.	.	.	4B-X\)	.	.	4d\)	.	.
2.F\	Fi-	.	2A/	-um	.	(<2.A/	pre-	.	2c/	-ces	.
!	!	!	!LO:TX:t=P:problem:kreska pseudotaktowa	!	!	!	!	!	!LO:TX:t=P:problem:kreska pseudotaktowa	!	!
.	.	.	2A/	ad	.	.	.	.	2c/	ad	.
!LO:TX:t=P:problem:kreska pseudotaktowa	!	!	!	!	!	!LO:TX:t=P:problem:kreska pseudotaktowa	!	!	!	!	!
4E\	-li-	.	.	.	.	4G/)	.	.	.	.	.
=62-	=62-	=62-	=62-	=62-	=62-	=62-	=62-	=62-	=62-	=62-	=62-
2D/	-um	.	2d\	Fi-	.	2F/	-ces	.	2.f\	Fi-	.
2.D/	ad	.	2A/	-li-	.	1A	ad	.	.	.	.
.	.	.	.	.	.	.	.	.	4e\	-li-	.
!	!	!	!LO:TX:t=P:problem:kreska pseudotaktowa	!	!	!	!	!	!	!	!
.	.	.	1A	-um	.	.	.	.	2d\	-um	.
4E\	.	.	.	.	.	.	.	.	.	.	.
!	!	!	!	!	!	!	!	!	!LO:TX:t=P:problem:kreska pseudotaktowa	!	!
4F\	.	.	.	.	.	1d\	Fi-	.	2.a\	Fi-	.
!LO:TX:t=P:problem:kreska pseudotaktowa	!	!	!	!	!	!	!	!	!	!	!
4G\	.	.	.	.	.	.	.	.	.	.	.
=63-	=63-	=63-	=63-	=63-	=63-	=63-	=63-	=63-	=63-	=63-	=63-
2.A\	Fi-	.	2rG	.	.	.	.	.	.	.	.
.	.	.	.	.	.	.	.	.	8g\L	.	.
.	.	.	.	.	.	.	.	.	8f\J	.	.
!	!	!	!	!	!	!LO:TX:t=P:problem:kreska pseudotaktowa	!	!	!	!	!
.	.	.	1A	pro	.	2c#X\	-li-	.	4e\	.	.
!LO:TX:t=P:problem:kreska pseudotaktowa	!	!	!	!	!	!	!	!	!LO:TX:t=P:problem:kreska pseudotaktowa	!	!
4A\	-li-	.	.	.	.	.	.	.	4e\	-li-	.
!	!	!	!	!	!	!LO:PB:g=original	!	!	!	!	!
!	!	!	!	!	!	!LO:TX:t=P:problem:kreska pseudotaktowa	!	!	!	!	!
2D/	-um	.	.	.	.	1d	-um	.	2f#X,<\	-um	.
!	!	!	!LO:TX:t=P:problem:kreska pseudotaktowa	!	!	!	!	!	!	!	!
!LO:LB:g=original	!	!	!	!	!	!	!	!	!	!	!
1D\	pro	.	2A/	ſa-	.	.	.	.	1f#\	pro	.
=64-	=64-	=64-	=64-	=64-	=64-	=64-	=64-	=64-	=64-	=64-	=64-
.	.	.	1F#X	-lu-	.	2rd	.	.	.	.	.
!LO:TX:t=P:problem:kreska pseudotaktowa	!	!	!	!	!	!	!	!	!LO:TX:t=P:problem:kreska pseudotaktowa	!	!
2D/	ſa-	.	.	.	.	1d	pro	.	2f#X\	Sa-	.
1BBn	-lu-	.	2D/	-te	.	.	.	.	1g	-lu-	.
!	!	!	!	!	!	!LO:TX:t=P:problem:kreska pseudotaktowa	!	!	!	!	!
!	!	!	!LO:LB:g=original	!	!	!	!	!	!	!	!
.	.	.	1d\	pro	.	2d\	ſa-	.	.	.	.
=65-	=65-	=65-	=65-	=65-	=65-	=65-	=65-	=65-	=65-	=65-	=65-
2GG,</	-te	.	.	.	.	1Bn	-lu-	.	2g\	-te	.
!	!	!	!LO:TX:t=P:problem:kreska pseudotaktowa	!	!	!	!	!	!	!	!
!	!	!	!	!	!	!	!	!	!LO:LB:g=original	!	!
1G	pro	.	2d\	ſa-	.	.	.	.	1d	pro	.
.	.	.	1Bn	-lu-	.	2G,</	-te	.	.	.	.
!LO:TX:t=P:problem:kreska pseudotaktowa	!	!	!	!	!	!	!	!	!LO:TX:t=P:problem:kreska pseudotaktowa	!	!
2G\	ſa-	.	.	.	.	1g\	pro	.	2d\	Sa-	.
=66-	=66-	=66-	=66-	=66-	=66-	=66-	=66-	=66-	=66-	=66-	=66-
1E	-lu-	.	2G/	-te	.	.	.	.	1e	-lu-	.
!	!	!	!LO:TX:t=P:problem:kreska pseudotaktowa	!	!	!LO:TX:t=P:problem:kreska pseudotaktowa	!	!	!	!	!
.	.	.	2G/	fi-	.	2g\	ſa-	.	.	.	.
!	!	!	!	!	!	!	!	!	!LO:TX:t=P:problem:kreska pseudotaktowa	!	!
2C/	-te	.	2.c\	-de-	.	1e	-lu-	.	1e	-te	.
!LO:TX:t=P:problem:kreska pseudotaktowa	!	!	!	!	!	!	!	!	!	!	!
2C/	fi-	.	.	.	.	.	.	.	.	.	.
.	.	.	4B\	-li-	.	.	.	.	.	.	.
=67-	=67-	=67-	=67-	=67-	=67-	=67-	=67-	=67-	=67-	=67-	=67-
*lig	*	*	*	*	*	*	*	*	*	*	*
1D	-de-	.	4A,</	-um	.	2d\	-te	.	1rg	.	.
.	.	.	4A/	fi-	.	.	.	.	.	.	.
!	!	!	!	!	!	!LO:TX:t=P:problem:kreska pseudotaktowa	!	!	!	!	!
.	.	.	1A	-de-	.	2c\ny	fi-	.	.	.	.
!LO:N:vis=1	!	!	!	!	!	!	!	!	!	!	!
2.E\	.	.	.	.	.	2.B\	-de-	.	2r	.	.
!	!	!	!LO:TX:t=P:problem:kreska pseudotaktowa	!	!	!	!	!	!	!	!
.	.	.	2G#X/	-li-	.	.	.	.	1e\	pro	.
*Xlig	*	*	*	*	*	*	*	*	*	*	*
!LO:TX:t=P:problem:kreska pseudotaktowa	!	!	!	!	!	!	!	!	!	!	!
4E\	-li-	.	.	.	.	4B\	-li-	.	.	.	.
=68-	=68-	=68-	=68-	=68-	=68-	=68-	=68-	=68-	=68-	=68-	=68-
!	!	!	!	!	!	!LO:TX:t=P:problem:kreska pseudotaktowa	!	!	!	!	!
2AA/	-um	.	2A,</	-um	.	1A	-um	.	.	.	.
!	!	!	!	!	!	!	!	!	!LO:TX:t=P:problem:kreska pseudotaktowa	!	!
1A	pro	.	1c	pro	.	.	.	.	2e\	Sa-	.
.	.	.	.	.	.	2rG	.	.	1c	-lu-	.
!LO:TX:t=P:problem:kreska pseudotaktowa	!	!	!LO:TX:t=P:problem:kreska pseudotaktowa	!	!	!	!	!	!	!	!
2A\	ſa-	.	2c\	ſa-	.	1A\	pro	.	.	.	.
=69-	=69-	=69-	=69-	=69-	=69-	=69-	=69-	=69-	=69-	=69-	=69-
!	!	!	!LO:TX:t=P:problem:kreska pseudotaktowa	!	!	!	!	!	!	!	!
1F	-lu-	.	1d	-lu-	.	.	.	.	2A,</	-te	.
*	*	*	*	*	*	*	*	*	*	*ij	*
!	!	!	!	!	!	!LO:TX:t=P:problem:kreska pseudotaktowa	!	!	!	!	!
.	.	.	.	.	.	2A/	ſa-	.	1a	pro	.
2D\	-te	.	2d,<\	-te	.	1F	-lu-	.	.	.	.
!	!	!	!	!	!	!	!	!	!LO:TX:t=P:problem:kreska pseudotaktowa	!	!
1D\	pro	.	1A\	pro	.	.	.	.	2a\	Sa-	.
=70-	=70-	=70-	=70-	=70-	=70-	=70-	=70-	=70-	=70-	=70-	=70-
.	.	.	.	.	.	2D/	-te	.	1fny	-lu-	.
!LO:TX:t=P:problem:kreska pseudotaktowa	!	!	!LO:TX:t=P:problem:kreska pseudotaktowa	!	!	!	!	!	!	!	!
2D/	ſa-	.	2A/	ſa-	.	1d	pro	.	.	.	.
!	!	!	!LO:TX:t=P:problem:kreska pseudotaktowa	!	!	!	!	!	!	!	!
1BB-X	-lu-	.	1B-X	-lu-	.	.	.	.	2d\	-te	.
*	*	*	*	*	*	*	*	*	*	*Xij	*
!	!	!	!	!	!	!	!	!	!LO:TX:t=P:problem:kreska pseudotaktowa	!	!
.	.	.	.	.	.	2d\	ſa-	.	2d\	fi-	.
!	!	!	!	!	!	!LO:LB:g=original	!	!	!	!	!
=71-	=71-	=71-	=71-	=71-	=71-	=71-	=71-	=71-	=71-	=71-	=71-
!	!	!	!	!	!	!LO:TX:t=P:problem:kreska pseudotaktowa	!	!	!	!	!
2GG/	-te	.	2B-\	-te	.	1B-X	-lu-	.	4g\	-de-	.
.	.	.	.	.	.	.	.	.	4d\	.	.
!	!	!	!LO:LB:g=original	!	!	!	!	!	!	!	!
!	!	!	!LO:TX:t=P:problem:kreska pseudotaktowa	!	!	!	!	!	!	!	!
2GG/	fi-	.	2d\	fi-	.	.	.	.	1g	.	.
!LO:LB:g=original	!	!	!	!	!	!	!	!	!	!	!
!LO:TX:t=P:problem:kreska pseudotaktowa	!	!	!	!	!	!	!	!	!	!	!
[>0AA	-de-	.	2c#X\	-de-	.	2A,<\	-te	.	.	.	.
!	!	!	!	!	!	!LO:TX:t=P:problem:kreska pseudotaktowa	!	!	!LO:TX:t=P:problem:kreska pseudotaktowa	!	!
.	.	.	2d\	.	.	2d\	fi-	.	2f\	.	.
=72-	=72-	=72-	=72-	=72-	=72-	=72-	=72-	=72-	=72-	=72-	=72-
.	.	.	2e\	.	.	2c#X\	-de-	.	2e\	.	.
!	!	!	!LO:TX:t=P:problem:kreska pseudotaktowa	!	!	!	!	!	!LO:TX:t=P:problem:kreska pseudotaktowa	!	!
.	.	.	2f\	.	.	2d\	.	.	2a\	.	.
1.AA]	.	.	2e\	.	.	2e\	.	.	2g\	.	.
!	!	!	!	!	!	!	!	!	!LO:TX:t=P:problem:kreska pseudotaktowa	!	!
.	.	.	1A\	.	.	1d\	.	.	2f\	.	.
!	!	!	!	!	!	!	!	!	!LO:LB:g=original	!	!
=73-	=73-	=73-	=73-	=73-	=73-	=73-	=73-	=73-	=73-	=73-	=73-
.	.	.	.	.	.	.	.	.	2.e\	.	.
!LO:TX:t=P:problem:kreska pseudotaktowa	!	!	!LO:TX:t=P:problem:kreska pseudotaktowa	!	!	!LO:TX:t=P:problem:kreska pseudotaktowa	!	!	!	!	!
2AA/	-li-	.	2A/	-li-	.	2c#X\	-li-	.	.	.	.
.	.	.	.	.	.	.	.	.	4e\	-li-	.
2D/	-um	.	2A,</	-um	.	2d\	-um	.	2f#X\	-um	.
!LO:TX:t=P:problem:kreska pseudotaktowa	!	!	!	!	!	!LO:TX:t=P:problem:kreska pseudotaktowa	!	!	!LO:TX:t=P:problem:kreska pseudotaktowa	!	!
2D/	a-	al-	2.d\	a-	al-	2A\	a-	al-	2f#\	a-	al-
=74-	=74-	=74-	=74-	=74-	=74-	=74-	=74-	=74-	=74-	=74-	=74-
1.GG	-men	-le-	.	.	.	4B-X\	.	-le-	2g\	.	-le-
.	.	.	4c\ny	.	.	4A/	.	.	.	.	.
*	*	*	*	*	*	*	*	*	*lig	*	*
.	.	.	4B-X\	.	.	4G/	.	.	1d	.	.
!	!	!	!LO:TX:t=P:problem:kreska pseudotaktowa	!	!	!	!	!	!	!	!
.	.	.	4A\	.	.	4A/	.	.	.	.	.
.	.	.	2.G/ny	.	-le-	1.B-X	.	.	.	.	.
2GG/	a-	-lu-	.	.	.	.	.	.	1g\	.	.
!	!	!	!LO:TX:t=P:problem:kreska pseudotaktowa	!	!	!	!	!	!	!	!
.	.	.	4A/	.	.	.	.	.	.	.	.
*	*	*	*	*	*	*	*	*	*Xlig	*	*
=75-	=75-	=75-	=75-	=75-	=75-	=75-	=75-	=75-	=75-	=75-	=75-
!LO:TX:a:t=3	!	!	!	!	!	!	!	!	!	!	!
0.D;<	-men.	-ja.	2.B-X\	.	-lu-	.	.	.	.	.	.
.	.	.	.	.	.	4A/	.	-lu-	4f#X\	.	.
.	.	.	4c\	.	-ja.	4G/	.	-ja.	4e\	.	-lu-
.	.	.	0d;<	-men	.	0A;;	-men.	.	0f#X;<	-men	-ja.
==	==	==	==	==	==	==	==	==	==	==	==
*-	*-	*-	*-	*-	*-	*-	*-	*-	*-	*-	*-
!!!system-decoration: [(s1,s2,s3,s4)]
!!!RDF**kern: l = terminal long
!!!RDF**kern: > = above
!!!RDF**kern: < = below
!!!EED: Antoni Szymański
!!!EST: 2021-03-25
!!!ENC:Kamil Watkowski
!!!END:2021-03-23
